X: 21012
T: Juliana
R: jig
M: 6/8
K: Dmajor
F/G/|A3/2B/A d2f|edc d2f/g/|aba agf|fgf e2F/G/|A3/2B/A d2f|
edc d2f/g/|ad'b afd|gec d2:|c/d/|e2a a^ga|fag fed|cea a^ga|
fag fed|bgd' d'ag|afd' d'af|bge afd|cde A2d/e/|f2d g2f|fed B2d|
A2d e2f|gfg e2 d/e/|f2d g2f|fed B2d|A2d e2f|e3 d2||

